;FLAVOR:Marlin
;TIME:3297
;Filament used: 2.64524m
;Layer height: 0.28
;MINX:49.635
;MINY:25.541
;MINZ:0.28
;MAXX:91.016
;MAXY:88.704
;MAXZ:22.68
;TARGET_MACHINE.NAME:Creality CR-10S Pro
;Generated with Cura_SteamEngine 5.11.0
M140 S50
M105
M190 S50
M104 S200
M105
M109 S200
M201 X500.00 Y500.00 Z100.00 E5000.00 ;Setup machine max acceleration
M203 X500.00 Y500.00 Z10.00 E50.00 ;Setup machine max feedrate
M204 P500.00 R1000.00 T500.00 ;Setup Print/Retract/Travel acceleration
M205 X8.00 Y8.00 Z0.40 E5.00 ;Setup Jerk
M220 S100 ;Reset Feedrate
M221 S100 ;Reset Flowrate

G28 ;Home
G29 ;Auto bed Level
M420 S1 ;Save and use mesh

G92 E0 ;Reset Extruder
G1 Z2.0 F3000 ;Move Z Axis up
G1 X10.1 Y20 Z0.28 F5000.0 ;Move to start position
G1 X10.1 Y200.0 Z0.28 F1500.0 E15 ;Draw the first line
G92 E0 ;Reset Extruder
G1 Z2.0 F3000 ;Move Z Axis up
M82 ;absolute extrusion mode
G92 E0
G92 E0
G1 F2700 E-5
;LAYER_COUNT:81
;LAYER:0
M107
G0 F6000 X56.082 Y34.071 Z0.28
;TYPE:SKIRT
G1 F2700 E0
G1 F1200 X56.646 Y33.249 E0.04642
G1 X57.263 Y32.501 E0.09157
G1 X57.884 Y31.864 E0.13299
G1 X58.76 Y31.054 E0.18855
G1 X59.293 Y30.606 E0.22097
G1 X60.204 Y29.887 E0.27501
G1 X61.042 Y29.264 E0.32363
G1 X61.852 Y28.725 E0.36894
G1 X62.7 Y28.261 E0.41395
G1 X63.526 Y27.891 E0.45609
G1 X64.077 Y27.672 E0.4837
G1 X65.044 Y27.367 E0.53092
G1 X65.419 Y27.266 E0.549
G1 X66.153 Y27.099 E0.58405
G1 X67.269 Y26.939 E0.63655
G1 X68.176 Y26.859 E0.67895
G1 X69.329 Y26.775 E0.73278
G1 X71.827 Y26.519 E0.8497
G1 X74.328 Y26.193 E0.96715
G1 X75.303 Y26.037 E1.01312
G1 X76.922 Y25.799 E1.08932
G1 X78.295 Y25.636 E1.1537
G1 X79.255 Y25.564 E1.19853
G1 X80.229 Y25.541 E1.2439
G1 X81.199 Y25.604 E1.28916
G1 X82.164 Y25.752 E1.33462
G1 X83.107 Y25.985 E1.37985
G1 X84.029 Y26.301 E1.42523
G1 X84.887 Y26.681 E1.46893
G1 X85.771 Y27.17 E1.51597
G1 X86.576 Y27.716 E1.56126
G1 X87.305 Y28.308 E1.60499
G1 X88.028 Y29.013 E1.65201
G1 X88.662 Y29.75 E1.69728
G1 X89.19 Y30.483 E1.73934
G1 X89.723 Y31.383 E1.78805
G1 X90.141 Y32.263 E1.83341
G1 X90.48 Y33.176 E1.87876
G1 X90.72 Y34.047 E1.92083
G1 X90.909 Y35.081 E1.96978
G1 X91.001 Y36.215 E2.02275
G1 X91.016 Y36.872 E2.05336
G1 X91.015 Y45.398 E2.45036
G1 X91.005 Y46.122 E2.48408
G1 X90.972 Y46.814 E2.51634
G1 X90.826 Y48.321 E2.58684
G1 X90.605 Y50.914 E2.70802
G1 X90.466 Y53.409 E2.82437
G1 X90.395 Y55.944 E2.94246
G1 X90.395 Y58.456 E3.05943
G1 X90.468 Y60.998 E3.17784
G1 X90.609 Y63.448 E3.29212
G1 X90.828 Y66.022 E3.4124
G1 X90.963 Y67.359 E3.47498
G1 X90.999 Y67.928 E3.50153
G1 X91.016 Y68.827 E3.54339
G1 X91.015 Y77.145 E3.93072
G1 X91.003 Y77.904 E3.96606
G1 X90.945 Y78.876 E4.0114
G1 X90.799 Y79.84 E4.0568
G1 X90.568 Y80.786 E4.10215
G1 X90.255 Y81.708 E4.14749
G1 X89.863 Y82.598 E4.19277
G1 X89.411 Y83.421 E4.23649
G1 X88.87 Y84.23 E4.28181
G1 X88.234 Y85.017 E4.32892
G1 X87.557 Y85.715 E4.3742
G1 X86.821 Y86.352 E4.41953
G1 X86.089 Y86.882 E4.46161
G1 X85.191 Y87.418 E4.51031
G1 X84.346 Y87.824 E4.55396
G1 X83.401 Y88.179 E4.60096
G1 X82.462 Y88.438 E4.64632
G1 X81.505 Y88.613 E4.69162
G1 X80.527 Y88.704 E4.73736
G1 X79.397 Y88.7 E4.78998
G1 X78.719 Y88.658 E4.82161
G1 X77.602 Y88.545 E4.87388
G1 X76.087 Y88.335 E4.9451
G1 X73.964 Y88.009 E5.04512
G1 X71.462 Y87.698 E5.16252
G1 X68.945 Y87.458 E5.28025
G1 X68.064 Y87.395 E5.32138
G1 X67.036 Y87.302 E5.36944
G1 X66.645 Y87.25 E5.38781
G1 X66.124 Y87.164 E5.4124
G1 X65.208 Y86.962 E5.45608
G1 X64.257 Y86.662 E5.50251
G1 X63.418 Y86.329 E5.54454
G1 X62.724 Y86.004 E5.58023
G1 X62.138 Y85.698 E5.61101
G1 X61.351 Y85.217 E5.65396
G1 X60.967 Y84.95 E5.67573
G1 X60.314 Y84.462 E5.71369
G1 X59.357 Y83.71 E5.77037
G1 X58.927 Y83.354 E5.79636
G1 X58.119 Y82.622 E5.84713
G1 X57.468 Y81.966 E5.89016
G1 X57.23 Y81.705 E5.90661
G1 X56.653 Y81.011 E5.94864
G1 X56.172 Y80.338 E5.98716
G1 X55.847 Y79.835 E6.01504
G1 X55.394 Y79.053 E6.05712
G1 X54.898 Y77.975 E6.11238
G1 X54.588 Y77.083 E6.15635
G1 X54.098 Y75.402 E6.23788
G1 X53.348 Y72.988 E6.35559
G1 X52.542 Y70.634 E6.47145
G1 X51.483 Y67.787 E6.61289
G1 X51.308 Y67.284 E6.63769
G1 X50.972 Y66.234 E6.68902
G1 X50.831 Y65.754 E6.71232
G1 X50.58 Y64.805 E6.75803
G1 X50.445 Y64.243 E6.78494
G1 X50.234 Y63.253 E6.83207
G1 X50.093 Y62.49 E6.8682
G1 X49.899 Y61.234 E6.92738
G1 X49.778 Y60.149 E6.97822
G1 X49.716 Y59.397 E7.01335
G1 X49.669 Y58.629 E7.04918
G1 X49.648 Y58.086 E7.07448
G1 X49.635 Y57.004 E7.12487
G1 X49.638 Y56.517 E7.14755
G1 X49.702 Y55.021 E7.21727
G1 X49.799 Y53.895 E7.2699
G1 X49.878 Y53.205 E7.30224
G1 X50.067 Y51.905 E7.36341
G1 X50.265 Y50.842 E7.41375
G1 X50.423 Y50.105 E7.44885
G1 X50.742 Y48.821 E7.51046
G1 X51.148 Y47.45 E7.57704
G1 X51.521 Y46.368 E7.63033
G1 X52.617 Y43.415 E7.777
G1 X53.431 Y41.028 E7.89443
G1 X54.519 Y37.461 E8.06808
G1 X54.877 Y36.435 E8.11868
G1 X55.049 Y36.02 E8.1396
G1 X55.376 Y35.305 E8.17621
G1 X55.671 Y34.755 E8.20527
G1 X56.082 Y34.071 E8.24243
G0 F6000 X56.412 Y34.297
G1 F1200 X56.955 Y33.503 E8.28722
G1 X57.55 Y32.78 E8.33082
G1 X58.156 Y32.158 E8.37126
G1 X59.032 Y31.348 E8.42681
G1 X59.541 Y30.92 E8.45778
G1 X60.443 Y30.208 E8.51129
G1 X61.264 Y29.597 E8.55894
G1 X62.044 Y29.076 E8.60262
G1 X62.864 Y28.626 E8.64617
G1 X63.674 Y28.263 E8.68751
G1 X64.225 Y28.044 E8.71511
G1 X65.148 Y27.753 E8.76018
G1 X65.509 Y27.656 E8.77758
G1 X66.21 Y27.495 E8.81108
G1 X67.326 Y27.335 E8.86357
G1 X68.205 Y27.258 E8.90466
G1 X69.366 Y27.173 E8.95887
G1 X71.879 Y26.916 E9.07649
G1 X74.38 Y26.59 E9.19393
G1 X75.366 Y26.432 E9.24043
G1 X76.969 Y26.196 E9.31588
G1 X78.325 Y26.035 E9.37946
G1 X79.265 Y25.964 E9.42336
G1 X80.204 Y25.94 E9.4671
G1 X81.139 Y25.999 E9.51072
G1 X82.068 Y26.14 E9.55447
G1 X82.978 Y26.364 E9.59811
G1 X83.867 Y26.667 E9.64185
G1 X84.725 Y27.047 E9.68554
G1 X85.547 Y27.501 E9.72927
G1 X86.324 Y28.027 E9.77296
G1 X87.053 Y28.619 E9.81669
G1 X87.725 Y29.274 E9.86038
G1 X88.337 Y29.984 E9.90403
G1 X88.865 Y30.717 E9.94609
G1 X89.362 Y31.555 E9.99146
G1 X89.766 Y32.403 E10.0352
G1 X90.094 Y33.282 E10.07889
G1 X90.334 Y34.153 E10.12096
G1 X90.51 Y35.114 E10.16645
G1 X90.601 Y36.224 E10.21831
G1 X90.616 Y36.872 E10.24849
G1 X90.615 Y45.392 E10.64522
G1 X90.605 Y46.103 E10.67833
G1 X90.572 Y46.795 E10.71059
G1 X90.427 Y48.287 E10.78039
G1 X90.207 Y50.88 E10.90156
G1 X90.066 Y53.398 E11.01899
G1 X89.995 Y55.933 E11.13708
G1 X89.995 Y58.456 E11.25456
G1 X90.068 Y61.009 E11.37349
G1 X90.21 Y63.482 E11.48883
G1 X90.43 Y66.062 E11.6094
G1 X90.564 Y67.384 E11.67128
G1 X90.599 Y67.936 E11.69703
G1 X90.616 Y68.827 E11.73853
G1 X90.615 Y77.139 E12.12557
G1 X90.604 Y77.881 E12.16012
G1 X90.549 Y78.817 E12.20378
G1 X90.41 Y79.746 E12.24752
G1 X90.189 Y80.658 E12.29122
G1 X89.889 Y81.547 E12.33491
G1 X89.512 Y82.406 E12.37859
G1 X89.078 Y83.199 E12.42068
G1 X88.537 Y84.008 E12.466
G1 X87.947 Y84.739 E12.50974
G1 X87.295 Y85.413 E12.55341
G1 X86.586 Y86.028 E12.59711
G1 X85.854 Y86.558 E12.63919
G1 X85.018 Y87.057 E12.68453
G1 X84.173 Y87.463 E12.72818
G1 X83.294 Y87.794 E12.77192
G1 X82.389 Y88.045 E12.81565
G1 X81.467 Y88.215 E12.8593
G1 X80.528 Y88.304 E12.90322
G1 X79.422 Y88.301 E12.95472
G1 X78.759 Y88.26 E12.98565
G1 X77.657 Y88.149 E13.03723
G1 X76.148 Y87.94 E13.10816
G1 X74.013 Y87.612 E13.20874
G1 X71.511 Y87.301 E13.32615
G1 X68.973 Y87.059 E13.44486
G1 X68.1 Y86.997 E13.48561
G1 X67.088 Y86.905 E13.53293
G1 X66.71 Y86.855 E13.55069
G1 X66.21 Y86.773 E13.57428
G1 X65.294 Y86.571 E13.61796
G1 X64.405 Y86.29 E13.66137
G1 X63.566 Y85.957 E13.7034
G1 X62.909 Y85.649 E13.73719
G1 X62.323 Y85.343 E13.76797
G1 X61.56 Y84.876 E13.80963
G1 X61.206 Y84.63 E13.8297
G1 X60.561 Y84.148 E13.86719
G1 X59.612 Y83.402 E13.9234
G1 X59.195 Y83.057 E13.9486
G1 X58.403 Y82.34 E13.99835
G1 X57.764 Y81.697 E14.04056
G1 X57.538 Y81.449 E14.05619
G1 X56.961 Y80.755 E14.09821
G1 X56.508 Y80.121 E14.13449
G1 X56.193 Y79.634 E14.1615
G1 X55.74 Y78.852 E14.20358
G1 X55.276 Y77.843 E14.2553
G1 X54.972 Y76.971 E14.2983
G1 X54.482 Y75.29 E14.37983
G1 X53.73 Y72.869 E14.49787
G1 X52.92 Y70.504 E14.61428
G1 X51.861 Y67.655 E14.75581
G1 X51.689 Y67.162 E14.78012
G1 X51.356 Y66.121 E14.83101
G1 X51.218 Y65.652 E14.85378
G1 X50.969 Y64.711 E14.8991
G1 X50.836 Y64.16 E14.9255
G1 X50.627 Y63.18 E14.97216
G1 X50.488 Y62.429 E15.00772
G1 X50.297 Y61.19 E15.06609
G1 X50.177 Y60.116 E15.11642
G1 X50.115 Y59.373 E15.15113
G1 X50.069 Y58.613 E15.18659
G1 X50.048 Y58.081 E15.21138
G1 X50.035 Y57.007 E15.26139
G1 X50.038 Y56.534 E15.28342
G1 X50.101 Y55.055 E15.35235
G1 X50.198 Y53.929 E15.40497
G1 X50.274 Y53.262 E15.43623
G1 X50.46 Y51.978 E15.49664
G1 X50.656 Y50.926 E15.54647
G1 X50.811 Y50.202 E15.58095
G1 X51.126 Y48.935 E15.64174
G1 X51.532 Y47.564 E15.70832
G1 X51.896 Y46.507 E15.76038
G1 X52.996 Y43.544 E15.90755
G1 X53.81 Y41.157 E16.02498
G1 X54.897 Y37.593 E16.19848
G1 X55.255 Y36.567 E16.24908
G1 X55.413 Y36.186 E16.26829
G1 X55.729 Y35.494 E16.30371
G1 X56.014 Y34.961 E16.33186
G1 X56.412 Y34.297 E16.3679
G0 F6000 X56.755 Y34.503
G1 F1200 X57.264 Y33.757 E16.40996
G1 X57.837 Y33.059 E16.45201
G1 X58.428 Y32.452 E16.49146
G1 X59.304 Y31.642 E16.54701
G1 X59.789 Y31.234 E16.57652
G1 X60.682 Y30.529 E16.6295
G1 X61.487 Y29.929 E16.67625
G1 X62.237 Y29.426 E16.7183
G1 X63.028 Y28.991 E16.76034
G1 X63.822 Y28.635 E16.80085
G1 X64.373 Y28.416 E16.82846
G1 X65.251 Y28.139 E16.87133
G1 X65.599 Y28.046 E16.88811
G1 X66.267 Y27.891 E16.92004
G1 X67.383 Y27.731 E16.97253
G1 X68.234 Y27.657 E17.01231
G1 X69.403 Y27.571 E17.06689
G1 X71.931 Y27.313 E17.18522
G1 X74.432 Y26.987 E17.30266
G1 X75.429 Y26.827 E17.34968
G1 X77.016 Y26.593 E17.42437
G1 X78.355 Y26.434 E17.48716
G1 X79.276 Y26.364 E17.53017
G1 X80.179 Y26.339 E17.57223
G1 X81.08 Y26.395 E17.61427
G1 X81.973 Y26.529 E17.65632
G1 X82.85 Y26.743 E17.69835
G1 X83.706 Y27.033 E17.74044
G1 X84.532 Y27.397 E17.78247
G1 X85.323 Y27.833 E17.82452
G1 X86.072 Y28.338 E17.86659
G1 X86.774 Y28.906 E17.90864
G1 X87.422 Y29.535 E17.95069
G1 X88.012 Y30.218 E17.99271
G1 X88.54 Y30.951 E18.03478
G1 X89.001 Y31.728 E18.07685
G1 X89.391 Y32.543 E18.11892
G1 X89.708 Y33.388 E18.16094
G1 X89.948 Y34.259 E18.20301
G1 X90.111 Y35.147 E18.24505
G1 X90.201 Y36.233 E18.29579
G1 X90.216 Y36.872 E18.32555
G1 X90.215 Y45.386 E18.722
G1 X90.205 Y46.084 E18.75451
G1 X90.172 Y46.776 E18.78677
G1 X90.028 Y48.253 E18.85587
G1 X89.809 Y50.846 E18.97704
G1 X89.666 Y53.387 E19.09555
G1 X89.595 Y55.922 E19.21363
G1 X89.595 Y58.456 E19.33163
G1 X89.668 Y61.02 E19.45106
G1 X89.811 Y63.516 E19.56748
G1 X90.032 Y66.103 E19.68838
G1 X90.165 Y67.409 E19.74951
G1 X90.199 Y67.944 E19.77447
G1 X90.216 Y68.827 E19.81559
G1 X90.215 Y77.133 E20.20236
G1 X90.205 Y77.858 E20.23612
G1 X90.153 Y78.759 E20.27814
G1 X90.021 Y79.653 E20.32022
G1 X89.81 Y80.531 E20.36227
G1 X89.523 Y81.387 E20.40431
G1 X89.161 Y82.214 E20.44634
G1 X88.727 Y83.007 E20.48844
G1 X88.225 Y83.757 E20.53046
G1 X87.659 Y84.461 E20.57252
G1 X87.032 Y85.111 E20.61458
G1 X86.351 Y85.704 E20.65663
G1 X85.619 Y86.234 E20.69871
G1 X84.844 Y86.697 E20.74074
G1 X84.031 Y87.089 E20.78277
G1 X83.186 Y87.409 E20.82484
G1 X82.316 Y87.652 E20.86691
G1 X81.428 Y87.817 E20.90896
G1 X80.529 Y87.904 E20.95102
G1 X79.447 Y87.902 E21.0014
G1 X78.799 Y87.862 E21.03163
G1 X77.712 Y87.753 E21.0825
G1 X76.209 Y87.545 E21.15315
G1 X74.062 Y87.215 E21.2543
G1 X71.56 Y86.904 E21.3717
G1 X69.001 Y86.66 E21.4914
G1 X68.136 Y86.599 E21.53178
G1 X67.141 Y86.509 E21.5783
G1 X66.774 Y86.46 E21.59554
G1 X66.296 Y86.382 E21.61809
G1 X65.414 Y86.189 E21.66013
G1 X64.553 Y85.918 E21.70216
G1 X63.714 Y85.585 E21.7442
G1 X63.094 Y85.294 E21.77609
G1 X62.508 Y84.988 E21.80687
G1 X61.788 Y84.547 E21.84619
G1 X61.445 Y84.309 E21.86563
G1 X60.808 Y83.834 E21.90263
G1 X59.867 Y83.094 E21.95837
G1 X59.463 Y82.76 E21.98278
G1 X58.687 Y82.058 E22.0315
G1 X58.06 Y81.428 E22.07289
G1 X57.846 Y81.193 E22.08769
G1 X57.269 Y80.499 E22.12972
G1 X56.844 Y79.904 E22.16376
G1 X56.539 Y79.433 E22.18989
G1 X56.086 Y78.651 E22.23197
G1 X55.654 Y77.711 E22.28014
G1 X55.356 Y76.859 E22.32217
G1 X54.866 Y75.178 E22.40371
G1 X54.111 Y72.75 E22.5221
G1 X53.295 Y70.365 E22.63948
G1 X52.239 Y67.523 E22.78065
G1 X52.07 Y67.04 E22.80448
G1 X51.74 Y66.008 E22.85493
G1 X51.605 Y65.55 E22.87717
G1 X51.358 Y64.617 E22.92211
G1 X51.227 Y64.077 E22.94798
G1 X51.02 Y63.107 E22.99417
G1 X50.883 Y62.368 E23.02916
G1 X50.695 Y61.146 E23.08673
G1 X50.576 Y60.082 E23.13659
G1 X50.514 Y59.349 E23.17084
G1 X50.469 Y58.597 E23.20592
G1 X50.448 Y58.076 E23.2302
G1 X50.435 Y57.01 E23.27984
G1 X50.438 Y56.551 E23.30121
G1 X50.5 Y55.089 E23.36935
G1 X50.597 Y53.963 E23.42198
G1 X50.67 Y53.319 E23.45216
G1 X50.853 Y52.051 E23.51181
G1 X51.047 Y51.01 E23.56112
G1 X51.199 Y50.299 E23.59498
G1 X51.51 Y49.049 E23.65496
G1 X51.916 Y47.678 E23.72154
G1 X52.271 Y46.646 E23.77235
G1 X53.375 Y43.673 E23.92003
G1 X54.189 Y41.286 E24.03746
G1 X55.275 Y37.725 E24.21081
G1 X55.625 Y36.72 E24.26037
G1 X55.777 Y36.352 E24.27891
G1 X56.082 Y35.682 E24.31319
G1 X56.357 Y35.167 E24.34037
G1 X56.755 Y34.503 E24.37642
G1 F2700 E19.37642
G0 F6000 X65.576 Y39.993
G1 F2700 E24.37642
G1 F1200 X66.35 Y39.28 E24.42542
G1 X67.648 Y38.295 E24.50129
G1 X67.983 Y38.158 E24.51815
G1 X68.29 Y38.083 E24.53286
G1 X68.633 Y38.075 E24.54884
G1 X69.498 Y38.182 E24.58942
G1 X69.51 Y38.184 E24.58999
G1 X70 Y38.216 E24.61285
G1 X70.02 Y38.216 E24.61379
G1 X70.318 Y38.205 E24.62767
G1 X70.383 Y38.431 E24.63862
G1 X70.122 Y38.58 E24.65262
G1 X70.114 Y38.585 E24.65305
G1 X69.223 Y39.15 E24.70218
G1 X69.215 Y39.156 E24.70265
G1 X68.397 Y39.733 E24.74926
G1 X68.389 Y39.738 E24.7497
G1 X67.532 Y40.405 E24.80027
G1 X67.524 Y40.412 E24.80076
G1 X66.761 Y41.07 E24.84768
G1 X66.754 Y41.076 E24.84811
G1 X66.002 Y41.79 E24.89639
G1 X65.996 Y41.797 E24.89682
G1 X65.305 Y42.517 E24.94329
G1 X65.293 Y42.53 E24.94411
G1 X65.22 Y42.62 E24.94951
G1 X65.006 Y42.519 E24.96053
G1 X65.057 Y42.281 E24.97186
G1 X65.059 Y42.27 E24.97238
G1 X65.142 Y41.741 E24.99732
G1 X65.143 Y41.726 E24.99802
G1 X65.194 Y41.078 E25.02828
G1 X65.25 Y40.618 E25.04986
G1 X65.381 Y40.316 E25.06519
G1 X65.576 Y39.993 E25.08276
G0 F6000 X65.891 Y40.247
G1 F1200 X66.607 Y39.586 E25.12813
G1 X67.849 Y38.645 E25.20069
G1 X68.107 Y38.539 E25.21368
G1 X68.341 Y38.482 E25.22489
G1 X68.613 Y38.476 E25.23756
G1 X69.388 Y38.572 E25.27392
G1 X69.009 Y38.812 E25.29481
G1 X68.984 Y38.829 E25.29622
G1 X68.166 Y39.406 E25.34283
G1 X68.143 Y39.423 E25.34416
G1 X67.286 Y40.09 E25.39473
G1 X67.263 Y40.109 E25.39612
G1 X66.5 Y40.767 E25.44304
G1 X66.479 Y40.786 E25.44435
G1 X65.727 Y41.5 E25.49264
G1 X65.707 Y41.52 E25.49396
G1 X65.548 Y41.686 E25.50466
G1 X65.592 Y41.125 E25.53086
G1 X65.64 Y40.725 E25.54962
G1 X65.735 Y40.505 E25.56078
G1 X65.891 Y40.247 E25.57482
G0 F6000 X66.337 Y40.379
G1 F1200 X66.86 Y39.897 E25.60794
G1 X67.734 Y39.234 E25.65902
G1 X67.041 Y39.774 E25.69993
G1 X67.002 Y39.806 E25.70228
G1 X66.337 Y40.379 E25.74315
G1 F2700 E20.74315
G0 F6000 X67.984 Y39.045
G1 F2700 E25.74315
G1 F1200 X68.05 Y38.995 E25.74701
G1 X68.062 Y38.99 E25.74761
G1 X67.984 Y39.045 E25.75206
G1 F2700 E20.75206
G0 F6000 X63.592 Y45.233
G0 X62.497 Y47.046
G0 X61.599 Y48.935
G0 X60.888 Y50.912
G0 X60.374 Y52.948
G0 X60.065 Y55.032
G0 X59.961 Y57.122
G0 X60.065 Y59.217
G0 X60.372 Y61.294
G0 X60.885 Y63.331
G0 X61.595 Y65.307
G0 X62.494 Y67.203
G0 X65.212 Y71.629
G1 F2700 E25.75206
G1 F1200 X65.295 Y71.728 E25.75807
G1 X65.304 Y71.738 E25.7587
G1 X65.99 Y72.452 E25.8048
G1 X65.996 Y72.458 E25.8052
G1 X66.721 Y73.149 E25.85184
G1 X66.728 Y73.155 E25.85226
G1 X67.512 Y73.831 E25.90047
G1 X67.52 Y73.837 E25.90093
G1 X68.342 Y74.482 E25.94959
G1 X68.35 Y74.488 E25.95005
G1 X69.216 Y75.1 E25.99943
G1 X69.224 Y75.106 E25.9999
G1 X70.05 Y75.632 E26.04549
G1 X70.057 Y75.636 E26.04587
G1 X70.381 Y75.822 E26.06327
G1 X70.322 Y76.045 E26.07401
G1 X69.888 Y76.046 E26.09422
G1 X69.871 Y76.047 E26.09501
G1 X69.496 Y76.081 E26.11254
G1 X69.484 Y76.082 E26.1131
G1 X69.145 Y76.133 E26.12906
G1 X69.138 Y76.135 E26.1294
G1 X68.895 Y76.181 E26.14092
G1 X68.346 Y76.188 E26.16649
G1 X68.083 Y76.146 E26.17889
G1 X67.758 Y76.015 E26.1952
