;FLAVOR:Marlin
;TIME:5355
;Filament used: 4.64789m
;Layer height: 0.28
;MINX:38.332
;MINY:27.192
;MINZ:0.28
;MAXX:129.019
;MAXY:94.641
;MAXZ:19.32
;TARGET_MACHINE.NAME:Creality CR-10S Pro
;Generated with Cura_SteamEngine 5.11.0
M140 S50
M105
M190 S50
M104 S200
M105
M109 S200
M201 X500.00 Y500.00 Z100.00 E5000.00 ;Setup machine max acceleration
M203 X500.00 Y500.00 Z10.00 E50.00 ;Setup machine max feedrate
M204 P500.00 R1000.00 T500.00 ;Setup Print/Retract/Travel acceleration
M205 X8.00 Y8.00 Z0.40 E5.00 ;Setup Jerk
M220 S100 ;Reset Feedrate
M221 S100 ;Reset Flowrate

G28 ;Home
G29 ;Auto bed Level
M420 S1 ;Save and use mesh

G92 E0 ;Reset Extruder
G1 Z2.0 F3000 ;Move Z Axis up
G1 X10.1 Y20 Z0.28 F5000.0 ;Move to start position
G1 X10.1 Y200.0 Z0.28 F1500.0 E15 ;Draw the first line
G92 E0 ;Reset Extruder
G1 Z2.0 F3000 ;Move Z Axis up
M82 ;absolute extrusion mode
G92 E0
G92 E0
G1 F2700 E-5
;LAYER_COUNT:69
;LAYER:0
M107
G0 F6000 X42.863 Y34.224 Z0.28
;TYPE:SKIRT
G1 F2700 E0
G1 F1200 X43.378 Y33.622 E0.03689
G1 X43.8 Y33.153 E0.06627
G1 X44.439 Y32.514 E0.10835
G1 X45.271 Y31.766 E0.16044
G1 X45.799 Y31.339 E0.19206
G1 X46.475 Y30.827 E0.23155
G1 X46.865 Y30.545 E0.25396
G1 X47.394 Y30.196 E0.28347
G1 X48.258 Y29.689 E0.33012
G1 X48.799 Y29.391 E0.35888
G1 X49.634 Y28.977 E0.40227
G1 X50.242 Y28.728 E0.43287
G1 X51.514 Y28.256 E0.49604
G1 X52.39 Y27.962 E0.53907
G1 X53.112 Y27.751 E0.5741
G1 X54.326 Y27.508 E0.63175
G1 X55.68 Y27.341 E0.69527
G1 X56.539 Y27.255 E0.73547
G1 X57.047 Y27.217 E0.75919
G1 X57.489 Y27.202 E0.77978
G1 X58.278 Y27.192 E0.81653
G1 X109.225 Y27.192 E3.18883
G1 X110.093 Y27.203 E3.22925
G1 X110.706 Y27.23 E3.25782
G1 X111.375 Y27.282 E3.28907
G1 X112.726 Y27.43 E3.35235
G1 X113.222 Y27.499 E3.37567
G1 X114.107 Y27.679 E3.41773
G1 X114.6 Y27.81 E3.44148
G1 X115.595 Y28.105 E3.4898
G1 X116.504 Y28.395 E3.53423
G1 X117.403 Y28.743 E3.57912
G1 X118.049 Y29.052 E3.61246
G1 X119.035 Y29.567 E3.66426
G1 X119.694 Y29.933 E3.69936
G1 X120.742 Y30.596 E3.75711
G1 X121.609 Y31.231 E3.80715
G1 X122.121 Y31.647 E3.83787
G1 X122.725 Y32.175 E3.87522
G1 X123.417 Y32.823 E3.91937
G1 X123.7 Y33.117 E3.93837
G1 X124.209 Y33.674 E3.9735
G1 X124.509 Y34.018 E3.99476
G1 X124.578 Y34.123 E4.00061
G1 X124.899 Y34.488 E4.02324
G1 X125.353 Y35.092 E4.05842
G1 X125.644 Y35.506 E4.08199
G1 X125.965 Y35.989 E4.10899
G1 X126.227 Y36.418 E4.1324
G1 X126.853 Y37.525 E4.19162
G1 X127.338 Y38.52 E4.24316
G1 X127.605 Y39.195 E4.27696
G1 X128.021 Y40.377 E4.33531
G1 X128.251 Y41.067 E4.36917
G1 X128.534 Y42.079 E4.41811
G1 X128.674 Y42.804 E4.45249
G1 X128.739 Y43.258 E4.47384
G1 X128.886 Y44.499 E4.53203
G1 X128.966 Y45.333 E4.57105
G1 X129.009 Y46.151 E4.60919
G1 X129.019 Y46.968 E4.64724
G1 X129.018 Y74.991 E5.9521
G1 X129.008 Y75.713 E5.98573
G1 X128.982 Y76.312 E6.01364
G1 X128.931 Y76.98 E6.04484
G1 X128.781 Y78.36 E6.10948
G1 X128.629 Y79.306 E6.15409
G1 X128.516 Y79.793 E6.17737
G1 X128.409 Y80.195 E6.19674
G1 X128.106 Y81.217 E6.24638
G1 X127.872 Y81.958 E6.28256
G1 X127.549 Y82.838 E6.32621
G1 X127.17 Y83.649 E6.36789
G1 X126.752 Y84.459 E6.41034
G1 X126.262 Y85.349 E6.45764
G1 X125.642 Y86.335 E6.51188
G1 X125.092 Y87.09 E6.55537
G1 X124.661 Y87.628 E6.58747
G1 X124.145 Y88.228 E6.62432
G1 X123.712 Y88.707 E6.65439
G1 X123.084 Y89.334 E6.69571
G1 X122.493 Y89.872 E6.73293
G1 X122.136 Y90.182 E6.75494
G1 X121.657 Y90.572 E6.7837
G1 X121.1 Y90.988 E6.81608
G1 X120.691 Y91.275 E6.83934
G1 X120.195 Y91.604 E6.86706
G1 X119.287 Y92.141 E6.91618
G1 X118.276 Y92.69 E6.96975
G1 X117.683 Y92.964 E7.00016
G1 X117.293 Y93.122 E7.01976
G1 X116.657 Y93.359 E7.05136
G1 X115.141 Y93.874 E7.12592
G1 X114.59 Y94.04 E7.15271
G1 X114.306 Y94.111 E7.16634
G1 X113.316 Y94.31 E7.21336
G1 X112.347 Y94.437 E7.25887
G1 X110.985 Y94.578 E7.32263
G1 X110.089 Y94.629 E7.36442
G1 X109.185 Y94.641 E7.40652
G1 X58.174 Y94.639 E9.7818
G1 X57.637 Y94.632 E9.80681
G1 X56.959 Y94.6 E9.83841
G1 X55.794 Y94.509 E9.89283
G1 X54.835 Y94.405 E9.93774
G1 X53.924 Y94.261 E9.98069
G1 X53.338 Y94.126 E10.00869
G1 X52.876 Y94.002 E10.03097
G1 X51.446 Y93.57 E10.10052
G1 X50.526 Y93.234 E10.14613
G1 X49.923 Y92.983 E10.17655
G1 X49.471 Y92.782 E10.19958
G1 X48.976 Y92.537 E10.2253
G1 X48.297 Y92.168 E10.26128
G1 X47.305 Y91.58 E10.31498
G1 X46.846 Y91.273 E10.34069
G1 X46.161 Y90.778 E10.38004
G1 X45.648 Y90.372 E10.41051
G1 X45.006 Y89.831 E10.4496
G1 X44.607 Y89.479 E10.47438
G1 X43.956 Y88.835 E10.51702
G1 X43.55 Y88.398 E10.54479
G1 X43.095 Y87.885 E10.57672
G1 X42.688 Y87.391 E10.60652
G1 X42.123 Y86.652 E10.64984
G1 X41.566 Y85.813 E10.69673
G1 X41.191 Y85.187 E10.73071
G1 X40.72 Y84.356 E10.77519
G1 X40.209 Y83.316 E10.82915
G1 X39.534 Y81.653 E10.91272
G1 X39.227 Y80.859 E10.95236
G1 X38.937 Y80.003 E10.99444
G1 X38.765 Y79.341 E11.02629
G1 X38.643 Y78.723 E11.05562
G1 X38.53 Y77.985 E11.09039
G1 X38.415 Y77.042 E11.13462
G1 X38.346 Y76.121 E11.17763
G1 X38.333 Y75.615 E11.2012
G1 X38.332 Y54.72 E12.17416
G1 X38.35 Y53.695 E12.22189
G1 X38.44 Y51.851 E12.30786
G1 X38.513 Y49.294 E12.42697
G1 X38.529 Y46.307 E12.56606
G1 X38.561 Y45.632 E12.59753
G1 X38.653 Y44.452 E12.65264
G1 X38.751 Y43.531 E12.69577
G1 X38.81 Y43.087 E12.71662
G1 X38.989 Y42.175 E12.7599
G1 X39.324 Y40.981 E12.81765
G1 X39.647 Y39.943 E12.86827
G1 X39.979 Y39.032 E12.91341
G1 X40.353 Y38.221 E12.955
G1 X40.919 Y37.128 E13.01231
G1 X41.256 Y36.519 E13.04472
G1 X41.923 Y35.461 E13.10296
G1 X42.438 Y34.754 E13.14369
G1 X42.863 Y34.224 E13.17532
G0 F6000 X43.167 Y34.484
G1 F1200 X43.676 Y33.889 E13.21178
G1 X44.083 Y33.436 E13.24014
G1 X44.707 Y32.811 E13.28127
G1 X45.523 Y32.077 E13.33237
G1 X46.041 Y31.658 E13.3634
G1 X46.71 Y31.151 E13.40248
G1 X47.085 Y30.879 E13.42405
G1 X47.597 Y30.541 E13.45262
G1 X48.451 Y30.039 E13.49875
G1 X48.977 Y29.749 E13.52672
G1 X49.786 Y29.347 E13.56878
G1 X50.381 Y29.103 E13.59873
G1 X51.641 Y28.635 E13.66131
G1 X52.503 Y28.346 E13.70365
G1 X53.191 Y28.143 E13.73705
G1 X54.375 Y27.905 E13.79328
G1 X55.72 Y27.739 E13.85639
G1 X56.569 Y27.654 E13.89612
G1 X57.061 Y27.617 E13.91909
G1 X57.494 Y27.602 E13.93927
G1 X58.283 Y27.592 E13.97601
G1 X109.22 Y27.592 E16.34785
G1 X110.076 Y27.603 E16.38771
G1 X110.675 Y27.629 E16.41563
G1 X111.332 Y27.68 E16.44631
G1 X112.671 Y27.826 E16.50903
G1 X113.142 Y27.891 E16.53117
G1 X114.027 Y28.071 E16.57323
G1 X114.487 Y28.194 E16.5954
G1 X115.474 Y28.486 E16.64333
G1 X116.36 Y28.768 E16.68662
G1 X117.231 Y29.104 E16.73009
G1 X117.864 Y29.406 E16.76275
G1 X118.841 Y29.917 E16.81409
G1 X119.48 Y30.271 E16.84811
G1 X120.506 Y30.919 E16.90461
G1 X121.357 Y31.542 E16.95372
G1 X121.858 Y31.948 E16.98375
G1 X122.452 Y32.467 E17.02048
G1 X123.129 Y33.1 E17.06363
G1 X123.405 Y33.387 E17.08218
G1 X123.908 Y33.937 E17.11688
G1 X124.208 Y34.281 E17.13813
G1 X124.247 Y34.353 E17.14195
G1 X124.579 Y34.729 E17.1653
G1 X125.026 Y35.323 E17.19992
G1 X125.311 Y35.727 E17.22294
G1 X125.624 Y36.198 E17.24927
G1 X125.879 Y36.615 E17.27203
G1 X126.493 Y37.7 E17.33009
G1 X126.978 Y38.695 E17.38163
G1 X127.228 Y39.328 E17.41332
G1 X127.642 Y40.503 E17.47133
G1 X127.866 Y41.175 E17.50431
G1 X128.141 Y42.155 E17.55171
G1 X128.278 Y42.861 E17.58519
G1 X128.342 Y43.305 E17.60608
G1 X128.488 Y44.537 E17.66385
G1 X128.567 Y45.354 E17.70207
G1 X128.609 Y46.156 E17.73947
G1 X128.619 Y46.968 E17.77728
G1 X128.618 Y74.985 E19.08187
G1 X128.608 Y75.696 E19.11498
G1 X128.583 Y76.282 E19.14229
G1 X128.533 Y76.937 E19.17288
G1 X128.386 Y78.297 E19.23658
G1 X128.239 Y79.216 E19.27991
G1 X128.129 Y79.69 E19.30257
G1 X128.025 Y80.082 E19.32145
G1 X127.725 Y81.096 E19.37069
G1 X127.496 Y81.82 E19.40605
G1 X127.173 Y82.7 E19.4497
G1 X126.815 Y83.466 E19.48907
G1 X126.402 Y84.266 E19.531
G1 X125.923 Y85.136 E19.57724
G1 X125.303 Y86.122 E19.63148
G1 X124.78 Y86.84 E19.67284
G1 X124.358 Y87.367 E19.70428
G1 X123.848 Y87.96 E19.7407
G1 X123.429 Y88.424 E19.76981
G1 X122.815 Y89.038 E19.81024
G1 X122.231 Y89.57 E19.84702
G1 X121.883 Y89.872 E19.86848
G1 X121.417 Y90.252 E19.89648
G1 X120.87 Y90.661 E19.92828
G1 X120.47 Y90.942 E19.95104
G1 X119.991 Y91.26 E19.97782
G1 X119.096 Y91.79 E20.02625
G1 X118.108 Y92.327 E20.07861
G1 X117.533 Y92.593 E20.10811
G1 X117.153 Y92.747 E20.12721
G1 X116.528 Y92.98 E20.15826
G1 X115.025 Y93.491 E20.23218
G1 X114.492 Y93.652 E20.25811
G1 X114.227 Y93.719 E20.27084
G1 X113.264 Y93.913 E20.31658
G1 X112.306 Y94.039 E20.36157
G1 X110.962 Y94.179 E20.42449
G1 X110.084 Y94.229 E20.46544
G1 X109.185 Y94.241 E20.50731
G1 X58.179 Y94.239 E22.88236
G1 X57.656 Y94.232 E22.90672
G1 X56.99 Y94.201 E22.93776
G1 X55.837 Y94.111 E22.99161
G1 X54.897 Y94.01 E23.03564
G1 X54.013 Y93.871 E23.07731
G1 X53.442 Y93.74 E23.10458
G1 X52.992 Y93.619 E23.12628
G1 X51.583 Y93.194 E23.19481
G1 X50.68 Y92.865 E23.23956
G1 X50.086 Y92.618 E23.26952
G1 X49.648 Y92.423 E23.29184
G1 X49.167 Y92.186 E23.31681
G1 X48.501 Y91.824 E23.35211
G1 X47.509 Y91.236 E23.4058
G1 X47.08 Y90.949 E23.42984
G1 X46.409 Y90.464 E23.46839
G1 X45.906 Y90.066 E23.49826
G1 X45.271 Y89.531 E23.53692
G1 X44.872 Y89.179 E23.5617
G1 X44.249 Y88.563 E23.60249
G1 X43.849 Y88.133 E23.62984
G1 X43.404 Y87.631 E23.66108
G1 X43.006 Y87.148 E23.69022
G1 X42.441 Y86.409 E23.73353
G1 X41.909 Y85.607 E23.77835
G1 X41.539 Y84.99 E23.81185
G1 X41.079 Y84.179 E23.85526
G1 X40.58 Y83.165 E23.90789
G1 X39.907 Y81.509 E23.99112
G1 X39.606 Y80.731 E24.02997
G1 X39.316 Y79.875 E24.07205
G1 X39.157 Y79.263 E24.10149
G1 X39.038 Y78.663 E24.12998
G1 X38.927 Y77.936 E24.16422
G1 X38.814 Y77.012 E24.20757
G1 X38.746 Y76.11 E24.24969
G1 X38.733 Y75.615 E24.27274
G1 X38.732 Y54.727 E25.24538
G1 X38.75 Y53.714 E25.29255
G1 X38.84 Y51.87 E25.37852
G1 X38.913 Y49.305 E25.498
G1 X38.929 Y46.326 E25.63672
G1 X38.96 Y45.663 E25.66763
G1 X39.051 Y44.494 E25.72223
G1 X39.147 Y43.584 E25.76483
G1 X39.203 Y43.164 E25.78456
G1 X39.382 Y42.252 E25.82784
G1 X39.706 Y41.1 E25.88356
G1 X40.023 Y40.079 E25.93334
G1 X40.342 Y39.199 E25.97693
G1 X40.708 Y38.405 E26.01764
G1 X41.269 Y37.322 E26.07443
G1 X41.606 Y36.713 E26.10684
G1 X42.247 Y35.696 E26.16282
G1 X42.75 Y35.004 E26.20266
G1 X43.167 Y34.484 E26.23369
G0 F6000 X43.471 Y34.744
G1 F1200 X43.974 Y34.156 E26.26973
G1 X44.366 Y33.719 E26.29706
G1 X44.99 Y33.094 E26.33819
G1 X45.775 Y32.388 E26.38735
G1 X46.283 Y31.977 E26.41777
G1 X46.945 Y31.475 E26.45646
G1 X47.306 Y31.213 E26.47723
G1 X47.8 Y30.886 E26.50482
G1 X48.645 Y30.389 E26.55046
G1 X49.155 Y30.107 E26.5776
G1 X49.964 Y29.705 E26.61967
G1 X50.52 Y29.478 E26.64763
G1 X51.768 Y29.014 E26.70963
G1 X52.617 Y28.729 E26.75133
G1 X53.27 Y28.535 E26.78305
G1 X54.424 Y28.302 E26.83787
G1 X55.76 Y28.137 E26.90055
G1 X56.599 Y28.053 E26.93981
G1 X57.075 Y28.017 E26.96204
G1 X57.499 Y28.002 E26.9818
G1 X58.288 Y27.992 E27.01854
G1 X109.215 Y27.992 E29.38991
G1 X110.059 Y28.003 E29.42922
G1 X110.644 Y28.028 E29.45648
G1 X111.289 Y28.078 E29.48661
G1 X112.617 Y28.222 E29.54881
G1 X113.062 Y28.283 E29.56972
G1 X113.947 Y28.463 E29.61177
G1 X114.374 Y28.578 E29.63236
G1 X115.353 Y28.867 E29.6799
G1 X116.216 Y29.141 E29.72206
G1 X117.059 Y29.465 E29.76411
G1 X117.679 Y29.76 E29.79608
G1 X118.648 Y30.267 E29.84701
G1 X119.267 Y30.609 E29.87994
G1 X120.27 Y31.242 E29.93516
G1 X121.121 Y31.865 E29.98427
G1 X121.595 Y32.25 E30.01271
G1 X122.179 Y32.759 E30.04878
G1 X122.841 Y33.378 E30.09098
G1 X123.11 Y33.657 E30.10903
G1 X123.607 Y34.2 E30.1433
G1 X123.907 Y34.544 E30.16456
G1 X123.893 Y34.557 E30.16545
G1 X124.279 Y34.994 E30.1926
G1 X124.699 Y35.553 E30.22516
G1 X124.978 Y35.949 E30.24771
G1 X125.283 Y36.407 E30.27333
G1 X125.531 Y36.812 E30.29545
G1 X126.133 Y37.875 E30.35233
G1 X126.618 Y38.87 E30.40387
G1 X126.851 Y39.461 E30.43345
G1 X127.263 Y40.63 E30.49117
G1 X127.481 Y41.283 E30.52323
G1 X127.748 Y42.232 E30.56913
G1 X127.882 Y42.919 E30.60172
G1 X127.945 Y43.352 E30.6221
G1 X128.09 Y44.576 E30.67949
G1 X128.168 Y45.375 E30.71687
G1 X128.209 Y46.161 E30.75352
G1 X128.219 Y46.968 E30.7911
G1 X128.218 Y74.979 E32.09541
G1 X128.208 Y75.679 E32.12801
G1 X128.184 Y76.252 E32.15471
G1 X128.135 Y76.894 E32.1847
G1 X127.991 Y78.234 E32.24745
G1 X127.849 Y79.126 E32.28951
G1 X127.743 Y79.587 E32.31154
G1 X127.641 Y79.969 E32.32995
G1 X127.344 Y80.975 E32.37879
G1 X127.12 Y81.683 E32.41337
G1 X126.81 Y82.531 E32.45541
G1 X126.46 Y83.282 E32.49399
G1 X126.051 Y84.073 E32.53545
G1 X125.584 Y84.923 E32.58061
G1 X124.964 Y85.909 E32.63485
G1 X124.468 Y86.59 E32.67408
G1 X124.054 Y87.106 E32.70488
G1 X123.551 Y87.692 E32.74084
G1 X123.146 Y88.141 E32.769
G1 X122.546 Y88.742 E32.80854
G1 X121.969 Y89.268 E32.8449
G1 X121.63 Y89.562 E32.86579
G1 X121.177 Y89.932 E32.89303
G1 X120.64 Y90.334 E32.92426
G1 X120.249 Y90.609 E32.94652
G1 X119.787 Y90.916 E32.97235
G1 X118.905 Y91.439 E33.0201
G1 X117.94 Y91.964 E33.07125
G1 X117.382 Y92.222 E33.09988
G1 X117.013 Y92.372 E33.11843
G1 X116.399 Y92.601 E33.14894
G1 X114.908 Y93.108 E33.22227
G1 X114.411 Y93.26 E33.24647
G1 X114.145 Y93.315 E33.25912
G1 X114.148 Y93.327 E33.2597
G1 X113.212 Y93.516 E33.30416
G1 X112.264 Y93.641 E33.34869
G1 X110.939 Y93.78 E33.41072
G1 X110.079 Y93.829 E33.45083
G1 X109.185 Y93.841 E33.49246
G1 X58.184 Y93.839 E35.86728
G1 X57.674 Y93.832 E35.89103
G1 X57.021 Y93.802 E35.92147
G1 X55.879 Y93.713 E35.97481
G1 X54.959 Y93.615 E36.01789
G1 X54.102 Y93.481 E36.05828
G1 X53.546 Y93.354 E36.08484
G1 X53.107 Y93.236 E36.10601
G1 X51.72 Y92.818 E36.17346
G1 X50.834 Y92.496 E36.21736
G1 X50.248 Y92.252 E36.24691
G1 X49.825 Y92.064 E36.26847
G1 X49.358 Y91.834 E36.29271
G1 X48.705 Y91.48 E36.32729
G1 X47.731 Y90.903 E36.38001
G1 X47.314 Y90.625 E36.40335
G1 X46.657 Y90.15 E36.4411
G1 X46.164 Y89.76 E36.47037
G1 X45.536 Y89.231 E36.5086
G1 X45.137 Y88.879 E36.53338
G1 X44.542 Y88.29 E36.57236
G1 X44.148 Y87.867 E36.59928
G1 X43.713 Y87.377 E36.62979
G1 X43.324 Y86.905 E36.65827
G1 X42.759 Y86.166 E36.70159
G1 X42.252 Y85.401 E36.74432
G1 X41.887 Y84.793 E36.77734
G1 X41.438 Y84.002 E36.81969
G1 X40.939 Y82.988 E36.87232
G1 X40.28 Y81.364 E36.95393
G1 X39.985 Y80.603 E36.99193
G1 X39.695 Y79.747 E37.03401
G1 X39.549 Y79.185 E37.06105
G1 X39.433 Y78.603 E37.08869
G1 X39.324 Y77.887 E37.12241
G1 X39.213 Y76.982 E37.16487
G1 X39.146 Y76.099 E37.2061
G1 X39.133 Y75.615 E37.22865
G1 X39.132 Y54.734 E38.20095
G1 X39.15 Y53.733 E38.24757
G1 X39.24 Y51.889 E38.33354
G1 X39.313 Y49.316 E38.4534
G1 X39.329 Y46.344 E38.59179
G1 X39.359 Y45.694 E38.62209
G1 X39.449 Y44.536 E38.67617
G1 X39.544 Y43.636 E38.71831
G1 X39.596 Y43.241 E38.73686
G1 X39.769 Y42.355 E38.7789
G1 X39.886 Y41.915 E38.8001
G1 X40.088 Y41.218 E38.83389
G1 X40.399 Y40.215 E38.88278
G1 X40.705 Y39.366 E38.92481
G1 X41.063 Y38.589 E38.96464
G1 X41.619 Y37.516 E39.02092
G1 X41.956 Y36.907 E39.05333
G1 X42.571 Y35.931 E39.10704
G1 X43.062 Y35.254 E39.14598
G1 X43.471 Y34.744 E39.17643
G1 F2700 E34.17643
G0 F6000 X51.258 Y41.209
G0 X51.454 Y41.383
G1 F2700 E39.17643
G1 F1200 X52.045 Y40.717 E39.21789
G1 X52.7 Y40.135 E39.25869
G1 X53.263 Y39.726 E39.29109
G1 X54.238 Y39.168 E39.3434
G1 X55.896 Y38.589 E39.42518
G1 X57.63 Y38.392 E39.50644
G1 X109.912 Y38.392 E41.94091
G1 X111.421 Y38.542 E42.01152
G1 X112.912 Y38.992 E42.08404
G1 X114.267 Y39.716 E42.15557
G1 X114.829 Y40.134 E42.18819
G1 X115.491 Y40.721 E42.22939
G1 X116.085 Y41.383 E42.2708
G1 X116.484 Y41.933 E42.30244
G1 X117.044 Y42.91 E42.35488
G1 X117.622 Y44.565 E42.43651
G1 X117.819 Y46.297 E42.51768
G1 X117.819 Y75.531 E43.87893
G1 X117.669 Y77.043 E43.94968
G1 X117.219 Y78.534 E44.0222
G1 X116.493 Y79.894 E44.09399
G1 X116.084 Y80.451 E44.12617
G1 X115.493 Y81.115 E44.16756
G1 X114.833 Y81.704 E44.20875
G1 X114.278 Y82.106 E44.24066
G1 X113.301 Y82.666 E44.2931
G1 X111.645 Y83.243 E44.37475
G1 X109.91 Y83.441 E44.45607
G1 X57.628 Y83.44 E46.89054
G1 X56.145 Y83.293 E46.95993
G1 X54.706 Y82.864 E47.02985
G1 X54.209 Y82.646 E47.05512
G1 X53.328 Y82.149 E47.10222
G1 X52.716 Y81.709 E47.13732
G1 X52.125 Y81.19 E47.17394
G1 X51.462 Y80.454 E47.22007
G1 X51.139 Y80.022 E47.24519
G1 X50.503 Y78.927 E47.30415
G1 X49.771 Y76.843 E47.407
