;FLAVOR:Marlin
;TIME:11136
;Filament used: 9.55295m
;Layer height: 0.28
;MINX:51.609
;MINY:36.27
;MINZ:0.28
;MAXX:139.649
;MAXY:101.47
;MAXZ:31.08
;TARGET_MACHINE.NAME:Creality CR-10S Pro
;Generated with Cura_SteamEngine 5.11.0
M140 S50
M105
M190 S50
M104 S200
M105
M109 S200
M201 X500.00 Y500.00 Z100.00 E5000.00 ;Setup machine max acceleration
M203 X500.00 Y500.00 Z10.00 E50.00 ;Setup machine max feedrate
M204 P500.00 R1000.00 T500.00 ;Setup Print/Retract/Travel acceleration
M205 X8.00 Y8.00 Z0.40 E5.00 ;Setup Jerk
M220 S100 ;Reset Feedrate
M221 S100 ;Reset Flowrate

G28 ;Home
G29 ;Auto bed Level
M420 S1 ;Save and use mesh

G92 E0 ;Reset Extruder
G1 Z2.0 F3000 ;Move Z Axis up
G1 X10.1 Y20 Z0.28 F5000.0 ;Move to start position
G1 X10.1 Y200.0 Z0.28 F1500.0 E15 ;Draw the first line
G92 E0 ;Reset Extruder
G1 Z2.0 F3000 ;Move Z Axis up
M82 ;absolute extrusion mode
G92 E0
G92 E0
G1 F2700 E-5
;LAYER_COUNT:111
;LAYER:0
M107
G0 F6000 X55.453 Y43.233 Z0.28
;TYPE:SKIRT
G1 F2700 E0
G1 F1200 X55.921 Y42.645 E0.03499
G1 X56.4 Y42.112 E0.06836
G1 X57.265 Y41.223 E0.12612
G1 X57.635 Y40.877 E0.14971
G1 X57.94 Y40.61 E0.16858
G1 X58.573 Y40.094 E0.20661
G1 X59.025 Y39.752 E0.233
G1 X59.487 Y39.427 E0.25931
G1 X60.227 Y38.946 E0.3004
G1 X60.957 Y38.519 E0.33978
G1 X61.409 Y38.278 E0.36363
G1 X62.172 Y37.908 E0.40312
G1 X62.774 Y37.648 E0.43365
G1 X63.315 Y37.44 E0.46064
G1 X64.395 Y37.066 E0.51386
G1 X64.926 Y36.912 E0.53961
G1 X65.669 Y36.728 E0.57525
G1 X66.272 Y36.601 E0.60394
G1 X67.013 Y36.474 E0.63895
G1 X67.609 Y36.399 E0.66692
G1 X68.209 Y36.341 E0.69499
G1 X68.86 Y36.298 E0.72537
G1 X69.631 Y36.274 E0.76129
G1 X82.852 Y36.27 E1.37691
G1 X83.72 Y36.281 E1.41733
G1 X84.284 Y36.305 E1.44362
G1 X85.352 Y36.406 E1.49357
G1 X86.818 Y36.571 E1.56227
G1 X89.353 Y36.79 E1.68075
G1 X91.803 Y36.929 E1.79501
G1 X94.371 Y37.002 E1.91464
G1 X96.862 Y37.004 E2.03063
G1 X99.393 Y36.933 E2.14853
G1 X101.874 Y36.795 E2.26423
G1 X104.453 Y36.574 E2.38476
G1 X106.536 Y36.348 E2.48232
G1 X107.455 Y36.283 E2.52522
G1 X108.079 Y36.27 E2.55429
G1 X121.832 Y36.276 E3.19468
G1 X122.368 Y36.293 E3.21965
G1 X122.923 Y36.324 E3.24554
G1 X123.484 Y36.373 E3.27176
G1 X124.185 Y36.461 E3.30466
G1 X124.763 Y36.56 E3.33196
G1 X125.572 Y36.721 E3.37037
G1 X126.339 Y36.902 E3.40707
G1 X126.96 Y37.088 E3.43725
G1 X128.052 Y37.46 E3.49097
G1 X128.495 Y37.633 E3.51312
G1 X128.973 Y37.837 E3.53732
G1 X129.495 Y38.084 E3.56421
G1 X130.523 Y38.629 E3.61839
G1 X131.402 Y39.159 E3.66618
G1 X131.882 Y39.481 E3.69309
G1 X132.444 Y39.884 E3.7253
G1 X133.166 Y40.452 E3.76807
G1 X133.682 Y40.9 E3.79989
G1 X134.097 Y41.293 E3.82651
G1 X134.697 Y41.895 E3.86608
G1 X135.306 Y42.557 E3.90797
G1 X135.793 Y43.152 E3.94377
G1 X136.115 Y43.588 E3.96901
G1 X136.822 Y44.609 E4.02684
G1 X137.071 Y45.004 E4.04858
G1 X137.285 Y45.373 E4.06844
G1 X137.561 Y45.893 E4.09585
G1 X137.953 Y46.684 E4.13696
G1 X138.233 Y47.3 E4.16847
G1 X138.41 Y47.729 E4.19008
G1 X138.648 Y48.379 E4.22231
G1 X138.787 Y48.8 E4.24295
G1 X138.959 Y49.376 E4.27095
G1 X139.079 Y49.821 E4.29241
G1 X139.25 Y50.549 E4.32723
G1 X139.398 Y51.341 E4.36475
G1 X139.488 Y51.962 E4.39396
G1 X139.567 Y52.693 E4.4282
G1 X139.624 Y53.484 E4.46513
G1 X139.638 Y53.916 E4.48525
G1 X139.649 Y54.836 E4.5281
G1 X139.644 Y83.603 E5.86761
G1 X139.609 Y84.495 E5.90918
G1 X139.566 Y85.008 E5.93315
G1 X139.476 Y85.831 E5.9717
G1 X139.385 Y86.483 E6.00235
G1 X139.287 Y87.011 E6.02736
G1 X139.141 Y87.681 E6.05929
G1 X139.049 Y88.044 E6.07673
G1 X138.86 Y88.704 E6.10869
G1 X138.657 Y89.315 E6.13867
G1 X138.218 Y90.48 E6.19664
G1 X138.042 Y90.884 E6.21716
G1 X137.759 Y91.478 E6.2478
G1 X137.467 Y92.037 E6.27717
G1 X137.143 Y92.607 E6.3077
G1 X136.807 Y93.141 E6.33708
G1 X136.364 Y93.799 E6.37401
G1 X135.942 Y94.384 E6.4076
G1 X135.733 Y94.653 E6.42346
G1 X135.312 Y95.162 E6.45422
G1 X134.932 Y95.593 E6.48098
G1 X134.212 Y96.336 E6.52915
G1 X133.632 Y96.88 E6.56618
G1 X133.111 Y97.337 E6.59845
G1 X132.317 Y97.947 E6.64507
G1 X131.641 Y98.419 E6.68346
G1 X130.795 Y98.951 E6.73
G1 X129.675 Y99.568 E6.78954
G1 X129.32 Y99.744 E6.80799
G1 X128.452 Y100.119 E6.85202
G1 X127.296 Y100.549 E6.90945
G1 X126.821 Y100.701 E6.93267
G1 X125.965 Y100.933 E6.97397
G1 X125.13 Y101.119 E7.0138
G1 X124.394 Y101.248 E7.0486
G1 X123.827 Y101.32 E7.07521
G1 X123.086 Y101.395 E7.10989
G1 X122.382 Y101.444 E7.14275
G1 X121.643 Y101.466 E7.17718
G1 X108.298 Y101.469 E7.79858
G1 X107.578 Y101.459 E7.83211
G1 X107.014 Y101.435 E7.85839
G1 X105.946 Y101.334 E7.90835
G1 X104.48 Y101.169 E7.97704
G1 X101.945 Y100.95 E8.09552
G1 X99.495 Y100.811 E8.20979
G1 X96.927 Y100.738 E8.32941
G1 X94.436 Y100.736 E8.4454
G1 X91.905 Y100.807 E8.5633
G1 X89.424 Y100.947 E8.67901
G1 X86.845 Y101.166 E8.79953
G1 X84.762 Y101.392 E8.8971
G1 X83.843 Y101.457 E8.94
G1 X83.219 Y101.47 E8.96906
G1 X69.535 Y101.464 E9.60624
G1 X68.954 Y101.445 E9.63331
G1 X68.343 Y101.411 E9.66181
G1 X67.742 Y101.359 E9.6899
G1 X67.113 Y101.28 E9.71941
G1 X66.527 Y101.179 E9.7471
G1 X65.667 Y101.008 E9.78793
G1 X64.778 Y100.79 E9.83055
G1 X64.246 Y100.632 E9.8564
G1 X63.536 Y100.389 E9.89134
G1 X62.743 Y100.082 E9.93093
G1 X62.288 Y99.887 E9.95399
G1 X61.477 Y99.499 E9.99585
G1 X60.467 Y98.942 E10.04956
G1 X59.99 Y98.648 E10.07565
G1 X59.592 Y98.385 E10.09786
G1 X58.846 Y97.857 E10.14042
G1 X58.488 Y97.582 E10.16144
G1 X58.051 Y97.227 E10.18765
G1 X57.509 Y96.751 E10.22124
G1 X57.051 Y96.311 E10.25082
G1 X56.355 Y95.595 E10.29731
G1 X55.838 Y95.008 E10.33374
G1 X55.433 Y94.499 E10.36402
G1 X55.102 Y94.046 E10.39015
G1 X54.421 Y93.048 E10.44641
G1 X54.163 Y92.631 E10.46924
G1 X53.769 Y91.923 E10.50697
G1 X53.459 Y91.316 E10.53871
G1 X53.238 Y90.845 E10.56293
G1 X53.034 Y90.364 E10.58726
G1 X52.837 Y89.851 E10.61285
G1 X52.563 Y89.076 E10.65113
G1 X52.362 Y88.445 E10.68196
G1 X52.187 Y87.788 E10.71362
G1 X51.983 Y86.867 E10.75755
G1 X51.86 Y86.166 E10.79069
G1 X51.778 Y85.546 E10.81981
G1 X51.697 Y84.626 E10.86281
G1 X51.661 Y83.728 E10.90466
G1 X51.649 Y82.933 E10.94168
G1 X51.662 Y58.495 E12.07962
G1 X51.609 Y55.065 E12.23935
G1 X51.653 Y53.185 E12.32692
G1 X51.672 Y52.768 E12.34636
G1 X51.769 Y51.762 E12.39342
G1 X51.922 Y50.92 E12.43327
G1 X52.086 Y50.275 E12.46426
G1 X52.403 Y49.163 E12.5181
G1 X52.549 Y48.701 E12.54066
G1 X52.808 Y47.958 E12.5773
G1 X53.06 Y47.318 E12.60933
G1 X53.4 Y46.555 E12.64822
G1 X53.93 Y45.534 E12.70179
G1 X54.272 Y44.939 E12.73374
G1 X54.454 Y44.645 E12.74985
G1 X54.962 Y43.896 E12.79199
G1 X55.453 Y43.233 E12.8304
G0 F6000 X55.766 Y43.482
G1 F1200 X56.219 Y42.912 E12.86431
G1 X56.687 Y42.391 E12.89692
G1 X57.538 Y41.515 E12.95378
G1 X57.899 Y41.178 E12.97678
G1 X58.193 Y40.92 E12.99499
G1 X58.815 Y40.413 E13.03236
G1 X59.256 Y40.079 E13.05812
G1 X59.705 Y39.762 E13.08371
G1 X60.429 Y39.291 E13.12393
G1 X61.145 Y38.872 E13.16256
G1 X61.584 Y38.638 E13.18572
G1 X62.331 Y38.275 E13.2244
G1 X62.918 Y38.021 E13.25418
G1 X63.446 Y37.818 E13.28052
G1 X64.507 Y37.45 E13.33281
G1 X65.022 Y37.3 E13.35779
G1 X65.752 Y37.119 E13.39281
G1 X66.34 Y36.995 E13.42079
G1 X67.063 Y36.871 E13.45495
G1 X67.648 Y36.797 E13.48241
G1 X68.235 Y36.74 E13.50987
G1 X68.873 Y36.698 E13.53964
G1 X69.631 Y36.674 E13.57495
G1 X82.847 Y36.67 E14.19035
G1 X83.703 Y36.681 E14.23021
G1 X84.267 Y36.705 E14.25649
G1 X85.307 Y36.803 E14.30514
G1 X86.784 Y36.97 E14.37435
G1 X89.319 Y37.188 E14.49283
G1 X91.792 Y37.329 E14.60817
G1 X94.36 Y37.402 E14.72779
G1 X96.873 Y37.404 E14.84481
G1 X99.404 Y37.333 E14.96271
G1 X101.908 Y37.193 E15.07949
G1 X104.487 Y36.973 E15.20001
G1 X106.564 Y36.747 E15.2973
G1 X107.463 Y36.683 E15.33926
G1 X108.079 Y36.67 E15.36795
G1 X121.82 Y36.676 E16.00779
G1 X122.346 Y36.692 E16.0323
G1 X122.888 Y36.722 E16.05757
G1 X123.435 Y36.77 E16.08314
G1 X124.118 Y36.855 E16.11519
G1 X124.685 Y36.952 E16.14197
G1 X125.48 Y37.11 E16.17972
G1 X126.224 Y37.285 E16.21531
G1 X126.831 Y37.467 E16.24481
G1 X127.907 Y37.833 E16.29774
G1 X128.338 Y38.001 E16.31928
G1 X128.802 Y38.199 E16.34277
G1 X129.308 Y38.438 E16.36882
G1 X130.317 Y38.972 E16.42198
G1 X131.179 Y39.491 E16.46883
G1 X131.649 Y39.806 E16.49518
G1 X132.197 Y40.199 E16.52658
G1 X132.904 Y40.754 E16.56843
G1 X133.407 Y41.19 E16.59943
G1 X133.814 Y41.576 E16.62555
G1 X134.403 Y42.166 E16.66437
G1 X134.997 Y42.811 E16.7052
G1 X135.471 Y43.389 E16.74
G1 X135.786 Y43.816 E16.76471
G1 X136.493 Y44.837 E16.82254
G1 X136.725 Y45.205 E16.8428
G1 X136.932 Y45.56 E16.86193
G1 X137.203 Y46.071 E16.88887
G1 X137.589 Y46.85 E16.92935
G1 X137.863 Y47.452 E16.96015
G1 X138.034 Y47.867 E16.98105
G1 X138.268 Y48.505 E17.01269
G1 X138.404 Y48.915 E17.0328
G1 X138.573 Y49.48 E17.06026
G1 X138.69 Y49.913 E17.08115
G1 X138.857 Y50.623 E17.11511
G1 X139.002 Y51.398 E17.15183
G1 X139.09 Y52.005 E17.18039
G1 X139.168 Y52.722 E17.21397
G1 X139.224 Y53.497 E17.25015
G1 X139.238 Y53.921 E17.2699
G1 X139.249 Y54.836 E17.31251
G1 X139.244 Y83.587 E18.65128
G1 X139.21 Y84.462 E18.69206
G1 X139.168 Y84.965 E18.71556
G1 X139.08 Y85.776 E18.75354
G1 X138.992 Y86.41 E18.78335
G1 X138.896 Y86.926 E18.80779
G1 X138.753 Y87.583 E18.8391
G1 X138.664 Y87.934 E18.85596
G1 X138.48 Y88.578 E18.88715
G1 X138.281 Y89.177 E18.91654
G1 X138.022 Y89.883 E18.95155
G1 X137.851 Y90.32 E18.9734
G1 X137.675 Y90.724 E18.99392
G1 X137.405 Y91.293 E19.02325
G1 X137.119 Y91.84 E19.05199
G1 X136.805 Y92.394 E19.08164
G1 X136.475 Y92.918 E19.11048
G1 X136.04 Y93.565 E19.14678
G1 X135.626 Y94.139 E19.17974
G1 X135.425 Y94.398 E19.195
G1 X135.012 Y94.897 E19.22516
G1 X134.632 Y95.328 E19.25192
G1 X133.939 Y96.044 E19.29832
G1 X133.368 Y96.579 E19.33475
G1 X132.847 Y97.036 E19.36702
G1 X132.088 Y97.619 E19.41159
G1 X131.428 Y98.08 E19.44908
G1 X130.582 Y98.612 E19.49561
G1 X129.497 Y99.21 E19.5533
G1 X129.161 Y99.377 E19.57077
G1 X128.312 Y99.744 E19.61384
G1 X127.174 Y100.168 E19.67039
G1 X126.716 Y100.315 E19.69278
G1 X125.878 Y100.543 E19.73322
G1 X125.061 Y100.725 E19.7722
G1 X124.343 Y100.851 E19.80614
G1 X123.787 Y100.922 E19.83224
G1 X123.058 Y100.996 E19.86636
G1 X122.37 Y101.044 E19.89848
G1 X121.643 Y101.066 E19.93235
G1 X108.304 Y101.069 E20.55346
G1 X107.595 Y101.059 E20.58648
G1 X107.031 Y101.035 E20.61277
G1 X105.991 Y100.937 E20.66141
G1 X104.514 Y100.77 E20.73062
G1 X101.979 Y100.552 E20.8491
G1 X99.506 Y100.411 E20.96444
G1 X96.938 Y100.338 E21.08406
G1 X94.425 Y100.336 E21.20108
G1 X91.894 Y100.407 E21.31898
G1 X89.39 Y100.548 E21.43576
G1 X86.811 Y100.767 E21.55628
G1 X84.734 Y100.993 E21.65357
G1 X83.835 Y101.057 E21.69553
G1 X83.219 Y101.07 E21.72422
G1 X69.548 Y101.064 E22.3608
G1 X68.976 Y101.046 E22.38745
G1 X68.378 Y101.013 E22.41534
G1 X67.791 Y100.962 E22.44278
G1 X67.181 Y100.886 E22.4714
G1 X66.605 Y100.787 E22.49861
G1 X65.762 Y100.619 E22.53864
G1 X64.892 Y100.406 E22.58035
G1 X64.375 Y100.253 E22.60545
G1 X63.68 Y100.016 E22.63964
G1 X62.9 Y99.714 E22.67859
G1 X62.461 Y99.526 E22.70083
G1 X61.65 Y99.138 E22.74269
G1 X60.677 Y98.602 E22.79442
G1 X60.21 Y98.314 E22.81997
G1 X59.823 Y98.059 E22.84155
G1 X59.09 Y97.54 E22.88337
G1 X58.74 Y97.271 E22.90392
G1 X58.315 Y96.926 E22.92941
G1 X57.786 Y96.462 E22.96218
G1 X57.338 Y96.032 E22.99109
G1 X56.655 Y95.33 E23.0367
G1 X56.151 Y94.759 E23.07216
G1 X55.756 Y94.263 E23.10169
G1 X55.432 Y93.82 E23.12724
G1 X54.761 Y92.838 E23.18263
G1 X54.513 Y92.436 E23.20462
G1 X54.119 Y91.728 E23.24235
G1 X53.821 Y91.146 E23.27279
G1 X53.606 Y90.688 E23.29635
G1 X53.407 Y90.22 E23.32003
G1 X53.214 Y89.718 E23.34508
G1 X52.944 Y88.955 E23.38276
G1 X52.749 Y88.342 E23.41272
G1 X52.574 Y87.685 E23.44438
G1 X52.377 Y86.798 E23.48669
G1 X52.257 Y86.114 E23.51902
G1 X52.175 Y85.494 E23.54814
G1 X52.097 Y84.61 E23.58947
G1 X52.061 Y83.722 E23.63085
G1 X52.049 Y82.933 E23.66759
G1 X52.062 Y58.495 E24.80553
G1 X52.009 Y55.074 E24.96484
G1 X52.053 Y53.203 E25.05199
G1 X52.072 Y52.786 E25.07143
G1 X52.163 Y51.834 E25.11596
G1 X52.316 Y50.992 E25.15581
G1 X52.471 Y50.385 E25.18498
G1 X52.788 Y49.273 E25.23882
G1 X52.927 Y48.833 E25.26031
G1 X53.186 Y48.09 E25.29695
G1 X53.425 Y47.481 E25.32741
G1 X53.755 Y46.739 E25.36522
G1 X54.277 Y45.733 E25.418
G1 X54.612 Y45.149 E25.44935
G1 X54.785 Y44.869 E25.46467
G1 X55.283 Y44.134 E25.50601
G1 X55.766 Y43.482 E25.5438
G0 F6000 X56.079 Y43.731
G1 F1200 X56.517 Y43.179 E25.57661
G1 X56.974 Y42.67 E25.60846
G1 X57.812 Y41.807 E25.66447
G1 X58.163 Y41.478 E25.68688
G1 X58.445 Y41.23 E25.70436
G1 X59.057 Y40.732 E25.7411
G1 X59.498 Y40.398 E25.76686
G1 X59.923 Y40.097 E25.79111
G1 X60.631 Y39.636 E25.83045
G1 X61.333 Y39.225 E25.86833
G1 X61.759 Y38.998 E25.89081
G1 X62.49 Y38.642 E25.92867
G1 X63.062 Y38.394 E25.9577
G1 X63.577 Y38.196 E25.98339
G1 X64.619 Y37.834 E26.03475
G1 X65.119 Y37.688 E26.05901
G1 X65.835 Y37.51 E26.09336
G1 X66.408 Y37.389 E26.12063
G1 X67.113 Y37.268 E26.15394
G1 X67.687 Y37.195 E26.18088
G1 X68.261 Y37.139 E26.20774
G1 X68.886 Y37.098 E26.2369
G1 X69.631 Y37.074 E26.27161
G1 X82.842 Y37.07 E26.88677
G1 X83.686 Y37.081 E26.92607
G1 X84.25 Y37.105 E26.95236
G1 X85.262 Y37.2 E26.99969
G1 X86.75 Y37.369 E27.06942
G1 X89.285 Y37.586 E27.1879
G1 X91.781 Y37.729 E27.30431
G1 X94.349 Y37.802 E27.42394
G1 X96.884 Y37.804 E27.54198
G1 X99.415 Y37.733 E27.65988
G1 X101.942 Y37.591 E27.77773
G1 X104.521 Y37.372 E27.89825
G1 X106.593 Y37.146 E27.9953
G1 X107.472 Y37.083 E28.03634
G1 X108.079 Y37.07 E28.06461
G1 X121.808 Y37.076 E28.70389
G1 X122.323 Y37.091 E28.72788
G1 X122.854 Y37.121 E28.75265
G1 X123.386 Y37.167 E28.77751
G1 X124.051 Y37.249 E28.80871
G1 X124.607 Y37.344 E28.83497
G1 X125.389 Y37.499 E28.8721
G1 X126.109 Y37.668 E28.90653
G1 X126.702 Y37.846 E28.93536
G1 X127.762 Y38.206 E28.98749
G1 X128.181 Y38.369 E29.00843
G1 X128.631 Y38.561 E29.03121
G1 X129.121 Y38.792 E29.05643
G1 X130.111 Y39.315 E29.10857
G1 X130.956 Y39.823 E29.15448
G1 X131.416 Y40.131 E29.18025
G1 X131.95 Y40.514 E29.21085
G1 X132.642 Y41.056 E29.25178
G1 X133.132 Y41.48 E29.28196
G1 X133.531 Y41.859 E29.30758
G1 X134.109 Y42.437 E29.34564
G1 X134.688 Y43.065 E29.38542
G1 X135.149 Y43.627 E29.41926
G1 X135.457 Y44.044 E29.4434
G1 X136.155 Y45.051 E29.50046
G1 X136.38 Y45.407 E29.52007
G1 X136.579 Y45.748 E29.53845
G1 X136.845 Y46.249 E29.56486
G1 X137.225 Y47.016 E29.60472
G1 X137.493 Y47.604 E29.63481
G1 X137.658 Y48.005 E29.655
G1 X137.892 Y48.643 E29.68665
G1 X138.021 Y49.03 E29.70564
G1 X138.187 Y49.585 E29.73262
G1 X138.301 Y50.005 E29.75288
G1 X138.464 Y50.697 E29.78598
G1 X138.606 Y51.455 E29.82189
G1 X138.692 Y52.049 E29.84984
G1 X138.769 Y52.751 E29.88273
G1 X138.824 Y53.51 E29.91816
G1 X138.838 Y53.926 E29.93754
G1 X138.849 Y54.836 E29.97992
G1 X138.844 Y83.572 E31.31799
G1 X138.811 Y84.429 E31.35792
G1 X138.77 Y84.922 E31.38096
G1 X138.684 Y85.721 E31.41838
G1 X138.599 Y86.337 E31.44733
G1 X138.505 Y86.841 E31.47121
G1 X138.365 Y87.485 E31.50189
G1 X138.279 Y87.824 E31.51818
G1 X138.1 Y88.452 E31.54859
G1 X137.905 Y89.04 E31.57743
G1 X137.65 Y89.737 E31.61199
G1 X137.484 Y90.161 E31.63319
G1 X137.314 Y90.553 E31.65309
G1 X137.051 Y91.108 E31.68169
G1 X136.771 Y91.643 E31.7098
G1 X136.467 Y92.181 E31.73858
G1 X136.143 Y92.695 E31.76687
G1 X135.716 Y93.331 E31.80254
G1 X135.31 Y93.894 E31.83486
G1 X135.117 Y94.143 E31.84953
G1 X134.712 Y94.633 E31.87913
G1 X134.345 Y95.05 E31.905
G1 X133.665 Y95.752 E31.95051
G1 X133.104 Y96.278 E31.98632
G1 X132.583 Y96.735 E32.01859
G1 X131.859 Y97.291 E32.06109
G1 X131.215 Y97.741 E32.09768
G1 X130.369 Y98.273 E32.14421
G1 X129.319 Y98.852 E32.20005
G1 X129.002 Y99.01 E32.21654
G1 X128.172 Y99.369 E32.25865
G1 X127.051 Y99.787 E32.31436
G1 X126.611 Y99.929 E32.33588
G1 X125.791 Y100.153 E32.37547
G1 X124.992 Y100.331 E32.41358
G1 X124.292 Y100.454 E32.44668
G1 X123.746 Y100.524 E32.47231
G1 X123.03 Y100.597 E32.50582
G1 X122.358 Y100.644 E32.53719
G1 X121.643 Y100.666 E32.5705
G1 X108.31 Y100.669 E33.19134
G1 X107.612 Y100.659 E33.22384
G1 X107.048 Y100.635 E33.25013
G1 X106.036 Y100.54 E33.29746
G1 X104.548 Y100.371 E33.36719
G1 X102.013 Y100.154 E33.48567
G1 X99.517 Y100.011 E33.60208
G1 X96.949 Y99.938 E33.72171
